!!!COM: Schubert, Franz
!!!CDT: 1797/01/31-1828/11/19
!!!SCT: D. 969
!!!OPR: 12 Valses nobles
!!!OPS: 77
!!!ONM: 3
**kern	**kern	**dynam
*part1	*part1	*part1
*staff2	*staff1	*
*clefF4	*clefG2	*
*k[]	*k[]	*
*C:	*C:	*
*M3/4	*M3/4	*
*MM160	*MM160	*
=	=	=
*>Intro	*>Intro	*>Intro
4C 4G 4c	4r	p
=	=	=
2C 2G 2c	2.r	.
4C 4G 4c	.	.
=	=	=
2C 2G 2c	4r	.
.	4r	.
4C 4G 4c	4e 4cc 4ee	.
=	=	=
2C 2G 2c	2e 2cc 2ee	.
4C 4G 4c	4e 4cc 4ee	.
=	=	=
2C 2G 2c	2e 2cc 2ee	.
4C 4G	4e 4cc 4ee	.
=!|:	=!|:	=!|:
*>A	*>A	*>A
2C 2G	8eL 8cc 8ee	.
.	8fJ 8dd 8ff	.
.	2g^ 2ee 2gg	.
4C 4G	.	.
=	=	=
2GG 2G	8fL 8dd 8ff	.
.	8eJ 8cc 8ee	.
.	2d^ 2b 2dd	.
4GG 4G	.	.
=	=	=
2C 2G	8eL 8cc 8ee	.
.	8fJ 8dd 8ff	.
.	4g 4ee 4gg	.
4C 4G	4g 4ee 4gg	.
=	=	=
2GG 2G	2.d 2.b 2.dd	.
4GG 4G	.	.
=	=	=
2C 2G	8eL 8cc 8ee	.
.	8fJ 8dd 8ff	.
.	2g^ 2ee 2gg	.
4C 4G	.	.
=	=	=
2C 2A	8aL 8ff 8aa	<
.	8bJ 8gg 8bb	.
.	2cc^ 2aa 2ccc	.
4C 4A	.	.
=	=	=
2C 2G 2B	8ddL 8bb 8ddd	>
.	8eeJ 8ccc 8eee	.
.	4ff 4ddd 4fff	.
4C 4G 4B	4ff 4ddd 4fff	]]
=	=	=
2C 2G 2c	2.ee 2.ccc 2.eee	.
4C 4G 4c	.	.
=	=	=
*>B	*>B	*>B
2C 2G	8eeL 8gg 8eee	p
.	8ddJ 8ff 8ddd	.
.	2cc 2ee 2ccc	.
4C 4G	.	.
=	=	=
2C 2A	8ccL 8aa 8ccc	.
.	8bJ 8gg 8bb	.
.	2a 2ff 2aa	.
4C 4A	.	.
=	=	=
2C 2G 2B	8aL 8ff 8aa	.
.	8gJ 8ee 8gg	.
.	4f 4dd 4ff	.
4C 4G 4B	4f 4dd 4ff	.
=	=	=
2C 2G 2c	8eL 8cc 8ee	>
.	8fJ 8dd 8ff	.
.	2g 2ee 2gg	.
4C 4G 4c	.	.
=	=	=
2C 2G 2B	8aL 8ff 8aa	.
.	8gJ 8ee 8gg	.
.	4f 4dd 4ff	.
4C 4G 4B	4f 4dd 4ff	.
=	=	=
2C 2G 2c	8eL 8cc 8ee	.
.	8fJ 8dd 8ff	.
.	2g 2ee 2gg	.
4C 4G 4c	.	.
=	=	=
2C 2G 2B	8aL 8ff 8aa	pp
.	8gJ 8ee 8gg	.
.	4f 4dd 4ff	.
4C 4G 4B	4f 4dd 4ff	.
=	=	=
2C 2G 2c	2.e 2.cc 2.ee	.
4C 4G	.	.
=:|!|:	=:|!|:	=:|!|:
*>A	*>A	*>A
2GG 2G	8dL 8b 8dd	p
.	8eJ 8cc 8ee	.
.	2f^ 2dd 2ff	.
4GG 4G	.	.
=	=	=
2GG 2G	8fL 8dd 8ff	.
.	8eJ 8cc 8ee	.
.	2d^ 2b 2dd	.
4GG 4G	.	.
=	=	=
2GG 2G	8e^L 8cc 8ee	.
.	8fJ 8dd 8ff	.
.	4g 4ee 4gg	.
4GG 4G	4g 4ee 4gg	.
=	=	=
2GG 2G	2.d 2.b 2.dd	<
4GG 4G	.	.
=	=	=
2GG 2G	8dL 8b 8dd	.
.	8eJ 8cc 8ee	.
.	2f 2dd 2ff	.
4GG 4G	.	.
=	=	=
2GG 2G	8fL 8dd 8ff	.
.	8eJ 8cc 8ee	.
.	2d 2b 2dd	.
4GG 4F 4G	.	.
=	=	=
2GG 2E 2G	8eL 8cc 8ee	.
.	8fJ 8dd 8ff	.
.	4g 4ee 4gg	.
4GG 4C 4G	4g 4ee 4gg	.
=	=	=
2GG 2G	2.d 2.b 2.dd	.
4GG 4G	.	.
=	=	=
2C 2G	8eL 8cc 8ee	p
.	8fJ 8dd 8ff	.
.	2g 2ee 2gg	.
4C 4G	.	.
=	=	=
2C 2A	8aL 8ff 8aa	.
.	8bJ 8gg 8bb	.
.	2cc 2aa 2ccc	.
4C 4A	.	.
=	=	=
*a:	*a:	*
2BB 2G#X	8ddL 8bb 8ddd	>
.	8eeJ 8ccc 8eee	.
.	4ff 4ddd 4fff	.
4BB 4G#	4ff 4ddd 4fff	.
=	=	=
2AA 2A	2.ee 2.ccc 2.eee	.
4AA 4A	.	.
=	=	=
*>B	*>B	*>B
*A:	*A:	*
2AA 2D 2F#X 2A	8aaL 8fff#X 8aaa	pp
.	8gg#XJ 8eee 8ggg#X	.
.	2ff#X 2ddd 2fff#	.
4AA 4F# 4A	.	.
=	=	=
2AA 2A	8eeL 8ccc#X 8eee	.
.	8ddJ 8bb 8ddd	.
.	2cc#X 2aa 2ccc#	.
4AA 4E 4A	.	.
=	=	=
2AA 2E 2A	8bL 8gg#X 8bb	.
.	8cc#XJ 8aa 8ccc#X	.
.	4dd 4bb 4ddd	.
4AA 4E 4A	4dd 4bb 4ddd	.
=	=	=
2AA 2E 2A	2.cc#X 2.aa 2.ccc#X	.
4AA 4E 4A	.	.
=	=	=
2AA 2D 2F#X 2A	8aL 8ff#X 8aa	.
.	8g#XJ 8ee 8gg#X	.
.	2f#X 2dd 2ff#	.
4AA 4F# 4A	.	.
=	=	=
2AA 2A	8eL 8cc#X 8ee	.
.	8dJ 8b 8dd	.
.	2c#X 2a 2cc#	.
4AA 4E	.	.
=	=	=
2AA 2E	8BL 8g#X 8b	.
.	8c#XJ 8a 8cc#X	.
.	4d 4b 4dd	>
4AA 4E	4d 4b 4dd	.
=	=	=
2AA 2E	2.c#X 2.a 2.cc#X	.
4AA 4E	.	.
=	=	=
2AA 2E	8BL 8g#X 8b	.
.	8c#XJ 8a 8cc#X	.
.	4d 4b 4dd	.
4AA 4E	4d 4b 4dd	.
=	=	=
2AA 2E	2.c#X 2.a 2.cc#X	.
4AA 4E	.	.
=	=	=
*>B	*>B	*>B
*C:	*C:	*
2FFni 2C 2Fni	8ccniL 8aa 8cccni	ff
.	8bJ 8gg 8bb	.
.	2a^ 2ffni 2aa	.
4FF 4C 4F	.	.
=	=	=
2DD 2AA 2D	8aL 8ff 8aa	.
.	8gJ 8ee 8gg	.
.	2f^ 2dd 2ff	.
4DD 4AA 4D	.	.
=	=	=
2GGG 2GG	8fL 8dd 8ff	.
.	8eJ 8cc 8ee	.
.	4d 4b 4dd	.
4GGG 4GG	4d 4b 4dd	.
=	=	=
2CC 2GG 2C	8eL 8cc 8ee	.
.	8fJ 8dd 8ff	.
.	2g 2ee 2gg	.
4CC 4GG 4C	.	.
=	=	=
2FFF 2CC 2FF	8ccL 8aa 8ccc	.
.	8bJ 8gg 8bb	.
.	2a 2ff 2aa	.
4FFF 4CC 4FF	.	.
=	=	=
2DD 2AA 2D	8aL 8ff 8aa	.
.	8gJ 8ee 8gg	.
.	2f 2dd 2ff	.
4DD 4AA 4D	.	.
=	=	=
2GGG 2GG	8fL 8dd 8ff	.
.	8eJ 8cc 8ee	.
.	4d 4b 4dd	.
4GGG 4GG	4d 4b 4dd	.
=	=	=
2CC 2GG	8eL 8cc 8ee	.
.	8fJ 8dd 8ff	.
.	2g 2ee 2gg	.
4CC 4GG	.	.
=	=	=
2GGG 2GG	8fL 8dd 8ff	.
.	8eJ 8cc 8ee	.
.	4d 4b 4dd	.
4GGG 4GG	4d 4b 4dd	.
=	=	=
2CC 2GG	8eL 8cc 8ee	.
.	8fJ 8dd 8ff	.
.	8gL 8ee 8gg	.
.	8aJ 8ff 8aa	.
4CC 4GG	8bL 8gg 8bb	.
.	8ccJ 8aa 8ccc	.
=	=	=
2GGG 2GG	8ddL 8bb 8ddd	.
.	8eeJ 8ccc 8eee	.
.	4ff 4ddd 4fff	.
4GGG 4GG	4ff 4ddd 4fff	.
=	=	=
2CC 2GG	8eeL 8ccc 8eee	.
.	8ffJ 8ddd 8fff	.
.	2gg 2eee 2ggg	<
4CC 4GG	.	.
=	=	=
2GGG 2GG	8ffL 8ddd 8fff	.
.	8eeJ 8ccc 8eee	.
.	4dd 4bb 4ddd	.
4GGG 4GG	4dd 4bb 4ddd	.
=	=	=
*	*8va	*
2CC 2GG	8eeL 8ccc 8eee	.
.	8ffJ 8ddd 8fff	.
.	8ggL 8eee 8ggg	.
.	8aaJ 8fff 8aaa	.
4CC 4GG	8bbL 8ggg 8bbb	.
.	8cccJ 8aaa 8cccc	.
=	=	=
2GGG 2GG	8dddL 8bbb 8dddd	.
.	8eeeJ 8cccc 8eeee	.
.	4fff 4dddd 4ffff	.
4GGG 4GG	4fff 4dddd 4ffff	.
=	=	=
2.CC 2.GG	2.eee 2.cccc 2.eeee	.
*	*X8va	*
=:|!	=:|!	=:|!
*-	*-	*-
!!!system-decoration: {(s1,s2)}
!!!AGN: Walzer
!!!EED: Wolfgang Drescher
!!!END: 2025/05/02
!!!ENC: Leon Sundermeyer
!!!EEV: 2025/05/05
!!!title: @{OPR}, @{SCT} №@{ONM}